!!!COA:	Martini, Johannes
!!!CDT:	~1440///-~1497//
!!!OTL:	Perfunde celi rore
!!!AGN:	Motet
!!!SCT:	Mar2095
!!!SCA:	Mar2095
!!!voices:	4
**kern	**kern	**kern	**kern
*staff4	*staff3	*staff2	*staff1
*Ivox	*Ivox	*Ivox	*Ivox
*I"Contratenor2	*I"Tenor	*I"Contratenor1	*I"Superius
*I'Ct2	*I'T	*I'Ct1	*I'S
*>[A,B]	*>[A,B]	*>[A,B]	*>[A,B]
*>A	*>A	*>A	*>A
*clefF4	*clefGv2	*clefGv2	*clefG2
*k[b-e-]	*k[b-]	*k[b-]	*k[b-]
*M3/1	*M3/1	*M3/1	*M3/1
*met(O)	*met(O)	*met(O)	*met(O)
!!section: Perfunde celi rore
!!!OMD: Perfunde celi rore
=1-	=1-	=1-	=1-
0G	0.r	0.d	0g
2.D\	.	.	[1a
4E-\	.	.	.
=2	=2	=2	=2
1F	0.r	1c	1a]
2BB-/	.	2d\	2.b-\
2C/	.	4c\	.
.	.	4B-\	4a/
1D	.	1A	1f
=3	=3	=3	=3
1GG	0.r	2G/	1g
.	.	2B-\	.
1D	.	2A/	2a/
.	.	1d	4b-\
.	.	.	2a/
2r	.	.	.
.	.	.	8g/L
.	.	.	8f/J
2AA/	.	2c#i\	2e/
=4	=4	=4	=4
4BB-/	0.r	2.d\	2d/
2D\	.	.	.
.	.	.	4r
4GG/	.	4e\	2dd\
2AA/	.	2f\	.
.	.	.	4cc\
2GG/	.	2g\	4b-\
.	.	.	8a/L
.	.	.	8g/J
2D\	.	2f\	2a/
2E-\	.	2g\	2g/
=5	=5	=5	=5
2C/	[0.G	2e\	2cc\
1.G	.	2.d\	2.b-\
.	.	4G/	4a/
.	.	2B-\	2.g/
1D	.	1A	.
.	.	.	8f#i/L
.	.	.	8e/J
.	.	.	2f#i/
=6	=6	=6	=6
0GG	0.G]	1G	1g
.	.	1B-	2d/
.	.	.	2.g/
1C	.	1c	.
.	.	.	4f/
.	.	.	4e/
.	.	.	4d/
=7	=7	=7	=7
1BB-	0.B-	1F	1d
0GG	.	1G	2r
.	.	.	1g
.	.	1d	.
.	.	.	4f/
.	.	.	4e/
=8	=8	=8	=8
1.D	0.A	2d\	2f/
.	.	1f	2d/
.	.	.	2f/
2E-\	.	4e\	2g/
.	.	4d\	.
1F	.	1c	1a
=9	=9	=9	=9
1.BB-	[0.d	2B-\	2b-\
.	.	2G/	1dd
.	.	2B-\	.
2C/	.	4A/	4cc\
.	.	4G/	4b-\
1D	.	1F#i	1a
=10	=10	=10	=10
2r	0d]	1G	2g/
2.GG/	.	.	2.b-\
.	.	2r	.
4AA/	.	.	4a/
2BB-/	.	2D/	2.g/
1C	1c	2E/	.
.	.	.	4f/
.	.	[2G/	4e/
.	.	.	4d/
=11	=11	=11	=11
1FF	1B-	4G/]	1d
.	.	4A/	.
.	.	2B-\	.
2r	0A	2c\	2e/
2.D\	.	1d	2.f/
4E-\	.	.	4g/
2F\	.	2c\	2a/
=12	=12	=12	=12
2G\	2G/	2B-\	2b-\
2D\	2F/	1d	2.a/
2r	1G	.	.
.	.	.	4g/
2GG/	.	2d\	2.g/
1D	1A	1d	.
.	.	.	4f#i/
.	.	.	4f#i/
.	.	.	4e/
=13	=13	=13	=13
2E-\	0.G	2B-\	1g
1C	.	2c\	.
.	.	2e-\	1r
2BB-/	.	2d\	.
2C/	.	1c	1g
4BB-/	.	.	.
4AA/	.	.	.
=14	=14	=14	=14
2GG/	1r	2B-\	2b-\
1C	.	4c\	2g/
.	.	2e-\	.
.	1r	.	2cc\
.	.	4d\	.
2D\	.	2.d\	2b-\
1E-	1G	.	1g
.	.	4c\	.
.	.	4c\	.
.	.	4B-\	.
=15	=15	=15	=15
1D	1A	0d	1.f
1BB-	0B-	.	.
.	.	.	2d/
1GG	.	2r	2f/
.	.	2G/	2g/
=16	=16	=16	=16
1r	0c	2F/	2a/
.	.	2G/	4g/
.	.	.	4f/
1AA	.	1A	1e
1BB-	1d	2F/	1d
.	.	2B-\	.
=17	=17	=17	=17
2C/	2c\	4A/	2r
.	.	4G/	.
2D\	1f	2F/	1dd
2BB-/	.	2B-\	.
2C/	2e\	2G/	2cc\
2D\	2d\	4r	2a/
.	.	2d\	.
2G\	2B-\	.	2b-\
.	.	4e\	.
=18	=18	=18	=18
2F\	2A/	1f	1a
2D\	1d	.	.
2G\	.	2B-\	1g
2C/	2e\	2c\	.
2F\	2d\	2A/	2a/
2G\	2B-\	[2G/	2b-\
=19	=19	=19	=19
2E-\	2c\	2G/]	2g/
2D\	1d	2A/	2f/
1G	.	4B-\	2b-\
.	.	4c\	.
.	2B-\	4d\	2.b-\
.	.	4e\	.
1F	1c	1f	.
.	.	.	4a/
.	.	.	4a/
.	.	.	4g/
=20	=20	=20	=20
2BB-/	1.B-	1d	2.b-\
1GG	.	.	.
.	.	.	4g/
.	.	1r	2b-\
2AA/	2A/	.	2cc\
2BB-/	1G	2d\	2dd\
2C/	.	2e\	4cc\
.	.	.	4b-\
=21	=21	=21	=21
2D\	2F/	2f\	2a/
2GG/	1B-	2g\	4g/
.	.	.	2b-\
2r	.	4f\	.
.	.	4e\	8a/L
.	.	.	8g/J
2D\	2A/	1d	2f/
2.GG/	2B-\	.	4g/
.	.	.	2b-\
.	[2d\	[2B-\	.
4AA/	.	.	4a/
=22	=22	=22	=22
2BB-/	2d\]	2B-\]	4g/
.	.	.	4f/
2C/	2c\	1G	2e/
1GG	2.B-\	.	2d/
.	.	2.d\	1g
.	8A/L	.	.
.	8G/J	.	.
1D	1A	.	.
.	.	4c\	.
.	.	2d\	2f#i/
=23	=23	=23	=23
0GG	0.G	2B-\	1g
.	.	2G/	.
.	.	2B-\	1r
.	.	2c\	.
2r	.	2.d\	1b-
2G\	.	.	.
.	.	4B-\	.
=24	=24	=24	=24
2F\	0.r	2c\	2a/
2G\	.	2B-\	2g/
2D\	.	1A	2f/
2.F\	.	.	2.a/
.	.	2F/	.
8E-\L	.	.	8g/L
8D\J	.	.	8f/J
2C/	.	2G/	2e/
=25	=25	=25	=25
2BB-/	0F	2B-\	1d
2.D\	.	2A/	.
.	.	1d	2r
4C/	.	.	.
4BB-/	.	.	1dd
4AA/	.	.	.
2GG/	[1G	2B-\	.
[2C/	.	[2e-\	[2cc\
=26	=26	=26	=26
4C/]	1G]	4e-\]	4cc\]
4D\	.	4d\	8b-/L
.	.	.	8a/J
2E-\	.	4c\	2g/
.	.	8B-\L	.
.	.	8c\J	.
1D	1A	1d	1f
2.E-\	1G	[1B-	2r
.	.	.	2g/
4D\	.	.	.
=27	=27	=27	=27
0BB-	0d	1B-]	2f/
.	.	.	2d/
.	.	1B-	2f/
.	.	.	2g/
[1F	1A	1c	2a/
.	.	.	[2cc\
=28	=28	=28	=28
1F]	1c	1f	4cc\]
.	.	.	4b-\
.	.	.	2a/
0G	0B-	1.d	4g/
.	.	.	2b-\
.	.	.	4a/
.	.	.	4g/
.	.	.	4f/
.	.	2e\	2g/
=29	=29	=29	=29
2D\	0A	2d\	2f/
2.F\	.	2c\	2.a/
.	.	2f\	.
4E-\	.	.	4g/
2C/	.	2e\	2g/
1D	2r	2d\	2f#i/
.	2A/	[2d\	4e/
.	.	.	4f#i/
=30	=30	=30	=30
1GG	2B-\	2d\]	1g
.	4A/	4c\	.
.	4G/	4B-\	.
1D	1F	1A	2r
.	.	.	2a/
2r	2G/	2G/	2b-\
2GG/	2B-\	[2d\	4a/
.	.	.	4g/
=31	=31	=31	=31
1D	1A	4d\]	1f
.	.	4e\	.
.	.	2f\	.
2C/	2r	2e\	2g/
4BB-/	2.D/	4d\	2b-\
2D\	.	2f\	.
.	.	.	1a
8C/L	4E/	8e\L	.
8BB-/J	.	8d\J	.
2AA/	2F/	2c\	.
=32	=32	=32	=32
1GG	1G	1B-	2r
.	.	.	2.d/
1D	1A	2A/	.
.	.	.	4e/
.	.	2d\	2f/
2E-\	1G	2B-\	2g/
2C/	.	2c\	2e/
=33	=33	=33	=33
0D	2F/	2A/	2d/
.	2.A/	2.d\	2.f/
.	4G/	4c\	4e/
.	2F/	4B-\	1d
.	.	4A/	.
1AA	1E	1A	.
.	.	.	2c#i/
=34	=34	=34	=34
2BB-/	1D	2F/	2d/
2GG/	.	4G/	2.f/
.	.	2B-\	.
2r	1d	.	.
.	.	8A/L	4g/
.	.	8G/J	.
1D	.	2F/	2a/
.	1d	2f\	2b-\
2G\	.	2g\	[2cc\
=35	=35	=35	=35
2A\	1.c	2e\	4cc\]
.	.	.	4b-\
1F	.	2.f\	2a/
.	.	.	2g/
.	.	4e\	.
2G\	2B-\	1d	1g
1D	1A	.	.
.	.	2d\	2f#i/
=36	=36	=36	=36
2r	1G	0d	0.g
2.GG/	.	.	.
.	1r	.	.
4AA/	.	.	.
2BB-/	.	.	.
2C/	1r	1c	.
4BB-/	.	.	.
4AA/	.	.	.
=37	=37	=37	=37
1GG	0d	2B-\	0.r
.	.	4A/	.
.	.	4G/	.
1BB-	.	2F/	.
.	.	2.G/	.
1C	1c	.	.
.	.	4F/	.
.	.	4E/	.
.	.	4D/	.
=38	=38	=38	=38
1.D	2B-\	2D/	0.r
.	4A/	2r	.
.	4G/	.	.
.	2F/	1r	.
2GG/	2.G/	.	.
1C	.	1r	.
.	4F/	.	.
.	4E/	.	.
.	4D/	.	.
=39	=39	=39	=39
2.BB-/	1D	0.r	0.r
4GG/	.	.	.
2BB-/	1G	.	.
2.C/	.	.	.
.	2A/	.	.
4BB-/	.	.	.
4AA/	2c\	.	.
4GG/	.	.	.
=40	=40	=40	=40
1GG	2B-\	0.r	0.r
.	2.d\	.	.
2BB-/	.	.	.
.	4c\	.	.
2D\	2.B-\	.	.
1C	.	.	.
.	4A/	.	.
.	4G/	.	.
.	4A/	.	.
=41	=41	=41	=41
1BB-	1B-	0.r	0.r
2.E-\	2G/	.	.
.	2.B-\	.	.
4D\	.	.	.
[1BB-	.	.	.
.	4A/	.	.
.	2F/	.	.
=42	=42	=42	=42
2BB-/]	2G/	0.r	0.r
2C/	2A/	.	.
2D\	2D/	.	.
2GG/	2.G/	.	.
1AA	.	.	.
.	4F#i/	.	.
.	4F#i/	.	.
.	4E/	.	.
=43	=43	=43	=43
1GG	1G	0.r	0.r
1G	2r	.	.
.	1d	.	.
1F	.	.	.
.	2c\	.	.
=44	=44	=44	=44
2r	2B-\	0.r	1r
1G	2.e-\	.	.
.	.	.	1r
.	4d\	.	.
2F\	1d	.	.
1E-	.	.	1g
.	2c\	.	.
=45	=45	=45	=45
2D\	1d	1d	2f/
2BB-/	.	.	2.b-\
1F	1r	2c\	.
.	.	.	4a/
.	.	2A/	1a
1G	[1d	1B-	.
.	.	.	2g/
=46	=46	=46	=46
2D\	2d\]	1A	1a
2F\	2c\	.	.
2G\	2B-\	2B-\	2g/
2E-\	2G/	2c\	1g
1D	1A	1d	.
.	.	.	2f#i/
=47	=47	=47	=47
2.E-\	0.G	2B-\	0g
.	.	2e-\	.
4D\	.	.	.
2BB-/	.	2d\	.
2.C/	.	2c\	.
.	.	4c\	2r
4BB-/	.	2d\	.
2GG/	.	.	2g/
.	.	8c\L	.
.	.	8B-\J	.
=48	=48	=48	=48
2D\	0.r	2A/	2f/
2GG/	.	2G/	2g/
4G\	.	1d	2b-\
4F\	.	.	.
2D\	.	.	1a
2F\	.	2.c\	.
2C/	.	.	2g/
.	.	4B-\	.
=49	=49	=49	=49
2D\	0.r	2.A/	2f/
2r	.	.	2.e/
.	.	4G/	.
2AA/	.	2A/	.
.	.	.	4d/
2BB-/	.	2D/	1d
1AA	.	1E	.
.	.	.	2c#i/
=50	=50	=50	=50
2BB-/	1r	4D/	1d
.	.	4F/	.
2.GG/	.	4G/	.
.	.	2B-\	.
.	1r	.	2r
4AA/	.	2c\	.
2BB-/	.	.	2dd\
.	.	4d\	.
2C/	1G	2e\	2cc\
2GG/	.	4d\	2b-\
.	.	4e\	.
=51	=51	=51	=51
2D\	0F	2f\	2a/
2.BB-/	.	2d\	2.dd\
.	.	2B-\	.
4C/	.	.	8cc\L
.	.	.	8b-\J
2D\	.	2r	2a/
1E-	1G	2B-\	1g
.	.	2c\	.
=52	=52	=52	=52
1D	2A/	0d	1f
.	1B-	.	.
1.GG	.	.	2.b-\
.	2G/	.	.
.	.	.	4a/
.	2B-\	1d	2g/
[2D\	2A/	.	2f/
=53	=53	=53	=53
2D\]	1d	2A/	2.f/
2BB-/	.	2B-\	.
.	.	.	4d/
2C/	2c\	2G/	4e/
.	.	.	4f/
2GG/	2B-\	2.d\	1g
1D	1A	.	.
.	.	4B-\	.
.	.	4c\	2f#i/
.	.	4d\	.
=54	=54	=54	=54
0.GGl	0.Gl	0.B-l	0.gl
!!LO:LB:i:g=z
=55||	=55||	=55||	=55||
*>B	*>B	*>B	*>B
*clefF4	*clefGv2	*clefGv2	*clefG2
*k[b-e-]	*k[b-]	*k[b-]	*k[b-]
*M2/1	*M2/1	*M2/1	*M2/1
*met(C|)	*met(C|)	*met(C|)	*met(C|)
!!section: A Virgine
!!!OMD: A Virgine
0GG	0r	0r	0r
=56	=56	=56	=56
1AA	0r	0r	0r
[1BB-	.	.	.
=57	=57	=57	=57
1BB-]	0r	0r	0g
1C	.	.	.
=58	=58	=58	=58
1AA	0r	1r	1a
1GG	.	[1d	[1b-
=59	=59	=59	=59
1G	0r	1d]	1b-]
1C	.	1e	1cc
=60	=60	=60	=60
1D	0r	1f	1a
2GG/	.	1g	[1g
[2C/	.	.	.
=61	=61	=61	=61
4C/]	0r	1e	2g/]
4BB-/	.	.	.
2C/	.	.	4f#i/
.	.	.	4e/
1D	.	1d	1f#i
=62	=62	=62	=62
2E-\	0r	2G/	2g/
2D\	.	1d	2.b-\
1F	.	.	.
.	.	.	4a/
.	.	2c\	[2a/
=63	=63	=63	=63
1G	0r	1B-	4a/]
.	.	.	4g/
.	.	.	1g
1D	.	1A	.
.	.	.	2f#i/
=64	=64	=64	=64
2r	0r	2G/	1g
2.GG/	.	1g	.
.	.	.	1b-
4AA/	.	.	.
4BB-/	.	4f\	.
4C/	.	4e\	.
=65	=65	=65	=65
2D\	0r	1f	1a
2F\	.	.	.
2C/	.	2e\	2g/
[2D\	.	[2d\	[2f/
=66	=66	=66	=66
2D\]	0r	2d\]	2f/]
2Eni\	.	4c#i\	4e/
.	.	4Bni\	4d/
1A	.	1c#i	1e
=67	=67	=67	=67
2D\	0r	0d	1d
1G	.	.	.
.	.	.	2r
4F\	.	.	[2dd\
4E-\	.	.	.
=68	=68	=68	=68
1F	0r	1r	2dd\]
.	.	.	2cc\
2G\	.	1d	2b-\
4F\	.	.	4a/
4E-\	.	.	4g/
=69	=69	=69	=69
2D\	0r	2d\	2f/
2F\	.	1c	2a/
2r	.	.	2g/
2F\	.	2A/	[2cc\
=70	=70	=70	=70
2G\	0r	2B-\	4cc\]
.	.	.	4b-\
2B-\	.	2d\	1b-
1F	.	1c	.
.	.	.	2a/
=71	=71	=71	=71
1BB-	0r	1B-	1b-
2C/	.	2r	1a
2D\	.	2F/	.
=72	=72	=72	=72
1E-	0r	2B-\	1g
.	.	2c\	.
2D\	.	2.d\	1f
[2BB-/	.	.	.
.	.	4e\	.
=73	=73	=73	=73
4BB-/]	0r	1f	2r
4C/	.	.	.
2D\	.	.	2a/
1GG	.	1g	2b-\
.	.	.	[2dd\
=74	=74	=74	=74
2r	0r	2G/	2dd\]
2F\	.	2A/	2cc\
2G\	.	2B-\	2b-\
2F\	.	2c\	[2a/
=75	=75	=75	=75
2.D\	0r	2d\	4a/]
.	.	.	4g/
.	.	2.d\	4f/
4C/	.	.	4e/
4BB-/	.	.	2d/
4AA/	.	4c\	.
2GG/	.	4B-\	[2b-\
.	.	4A/	.
=76	=76	=76	=76
1G	0r	2G/	2b-\]
.	.	2B-\	4a/
.	.	.	4g/
1D	.	1A	2.f#i/
.	.	.	4e/
=77	=77	=77	=77
1GG	[0G	0G	0g
1C	.	.	.
=78	=78	=78	=78
2BB-/	0G_	1.B-	1r
1E-	.	.	.
.	.	.	1g
2D\	.	2c\	.
=79	=79	=79	=79
2BB-/	0G_	2d\	1.g
1C	.	1e-i	.
4BB-/	.	4d\	2a/
4AA/	.	4c\	.
=80	=80	=80	=80
1GG	0G]	1d	1b-
1C	.	1e-i	1cc
=81	=81	=81	=81
1BB-	[0B-	1d	1.dd
1GG	.	[1g	.
.	.	.	[2b-\
=82	=82	=82	=82
0G	0B-]	2g\]	2b-\]
.	.	2f\	2a/
.	.	[1d	1g
=83	=83	=83	=83
[0D	0A	2d\]	1f
.	.	2c\	.
.	.	[1A	2d/
.	.	.	[2f/
=84	=84	=84	=84
0D]	[0d	1A]	2f/]
.	.	.	2g/
.	.	[1F	1a
=85	=85	=85	=85
1BB-	0d]	2F/]	1b-
.	.	2D/	.
1D	.	2F/	[1a
.	.	2G/	.
=86	=86	=86	=86
0AA	0c#	0A	2a/]
.	.	.	4g/
.	.	.	4f/
.	.	.	1e
=87	=87	=87	=87
1r	0d	1B-	1d
1D	.	2A/	1f
.	.	2B-\	.
=88	=88	=88	=88
1C	1e	0c	1g
1F	1f	.	1a
=89	=89	=89	=89
2r	0d	1B-	1b-
1BB-	.	.	.
.	.	[1f	1dd
2BB-/	.	.	.
=90	=90	=90	=90
1F	1A	1f]	1cc
1G	[1d	1d	[1b-
=91	=91	=91	=91
1D	1d]	1.f	2b-\]
.	.	.	2a/
1F	1c	.	[1a
.	.	2e\	.
=92	=92	=92	=92
0G	0B-	1d	1a]
.	.	1e	1g
=93	=93	=93	=93
0D	[0A	0d	0a
=94	=94	=94	=94
0F	0A]	1c	1r
.	.	1f	1cc
=95	=95	=95	=95
1G	1B-	1d	1b-
1C	[1c	1e	1g
=96	=96	=96	=96
0F	1c]	1.c	1.a
.	1A	.	.
.	.	2B-\	4g/
.	.	.	4f/
=97	=97	=97	=97
1E-	2B-\	1G	1g
.	2c\	.	.
1D	[1d	1A	1f
=98	=98	=98	=98
1BB-	1d]	2B-\	1.b-
.	.	1d	.
1E-	1G	.	.
.	.	4c\	2g/
.	.	4B-\	.
=99	=99	=99	=99
1D	1F	[0d	2a/
.	.	.	2b-\
1GG	1B-	.	[1g
=100	=100	=100	=100
0D	0A	0d]	2g/]
.	.	.	4f#i/
.	.	.	4e/
.	.	.	1f#i
=101	=101	=101	=101
1r	[0G	1e-i	1.g
1GG	.	1d	.
.	.	.	2a/
=102	=102	=102	=102
0GG	0G]	0B-	2b-\
.	.	.	2cc\
.	.	.	[1dd
=103	=103	=103	=103
0G	0r	1.d	1dd]
.	.	.	1b-
.	.	4c\	.
.	.	4B-\	.
=104	=104	=104	=104
1F	0r	1A	1cc
1G	.	2r	[1b-
.	.	2d\	.
=105	=105	=105	=105
1E-	0r	2.c\	2b-\]
.	.	.	4a/
.	.	4B-\	4g/
1D	.	1d	1f
=106	=106	=106	=106
1GG	[0d	1B-	1g
[1G	.	2G/	[1b-
.	.	[2B-\	.
=107	=107	=107	=107
2G\]	0d]	2B-\]	1b-]
2F\	.	4A/	.
.	.	4G/	.
1D	.	1F#i	1a
=108	=108	=108	=108
0E-	1B-	1G	0g
.	1c	2r	.
.	.	2G/	.
=109	=109	=109	=109
1D	0d	2A/	1f
.	.	2.B-\	.
1G	.	.	1b-
.	.	4A/	.
.	.	4G/	.
.	.	4F/	.
=110	=110	=110	=110
1E-	1e-i	1G	1cc
1D	1f	1F	[1dd
=111	=111	=111	=111
1r	1B-	[0f	2dd\]
.	.	.	2cc\
1BB-	1d	.	[1b-
=112	=112	=112	=112
0F	0c	0f]	2b-\]
.	.	.	4a/
.	.	.	4g/
.	.	.	1a
=113	=113	=113	=113
[0BB-	[0B-	1d	0b-
.	.	1f	.
=114	=114	=114	=114
0BB-]	0B-]	2f\	1r
.	.	2.d\	.
.	.	.	1f
.	.	4c\	.
.	.	2d\	.
=115	=115	=115	=115
1E-	0r	1G	1g
1D	.	2A/	1f
.	.	[2B-\	.
=116	=116	=116	=116
1GG	0r	4B-\]	1b-
.	.	4c\	.
.	.	2d\	.
2AA/	.	2c\	2a/
2BB-/	.	2B-\	[2g/
=117	=117	=117	=117
2C/	0r	1A	2g/]
2D\	.	.	2f/
2GG/	.	1G	2g/
[2C/	.	.	[2e/
=118	=118	=118	=118
2C/]	0r	2A/	4e/]
.	.	.	4d/
2D\	.	2F/	1d
1AA	.	1E	.
.	.	.	2c#i/
=119	=119	=119	=119
2BB-/	0r	2D/	1d
1GG	.	1G	.
.	.	.	1r
2BB-/	.	4F/	.
.	.	4E/	.
=120	=120	=120	=120
1AA	0r	1F	1a
1GG	.	1G	1b-
=121	=121	=121	=121
2r	0r	2A/	2cc\
1GG	.	2G/	1dd
.	.	2B-\	.
2AA/	.	2c\	2cc\
=122	=122	=122	=122
2BB-/	0r	2d\	2b-\
2C/	.	4c\	4a/
.	.	4B-\	4g/
1D	.	1A	2.f#i/
.	.	.	4e/
=123	=123	=123	=123
[0GG	[0B-	[0G	0g
=124	=124	=124	=124
0GG]	0B-]	1G]	1d
.	.	[1d	[1g
=125	=125	=125	=125
1G	0G	2d\]	2g/]
.	.	2B-\	2d/
1E-	.	1c	1g
=126	=126	=126	=126
1D	0A	1d	1f
1AA	.	[1c	[1e
=127	=127	=127	=127
1C	1G	2c\]	2e/]
.	.	2B-\	2d/
1D	1F	[1A	[1d
=128	=128	=128	=128
0AA	0E	1A]	2d/]
.	.	.	2c#i/
.	.	1A	2c#i/
.	.	.	2Bni/
=129	=129	=129	=129
1BB-	0D	1F	0d
[1GG	.	2G/	.
.	.	[2B-\	.
=130	=130	=130	=130
2GG/]	0G	2B-\]	1r
2FF/	.	2A/	.
1GG	.	1B-	1dd
=131	=131	=131	=131
0AA	1E	1c	1cc
.	1F	2r	1a
.	.	2c\	.
=132	=132	=132	=132
0GG	0G	2B-\	1.b-
.	.	1d	.
.	.	2d\	4a/
.	.	.	4g/
=133	=133	=133	=133
1D	1A	[0d	1f
1GG	1B-	.	2g/
.	.	.	[2b-\
=134	=134	=134	=134
2r	1G	1d]	2b-\]
2G\	.	.	4a/
.	.	.	4g/
1F	1r	[1f	2a/
.	.	.	2cc\
=135	=135	=135	=135
1BB-	1d	1f]	2.b-\
.	.	.	4a/
1F	1c	1f	[1a
=136	=136	=136	=136
0G	0B-	1d	2a/]
.	.	.	2g/
.	.	1e	2g/
.	.	.	2f/
=137	=137	=137	=137
1D	1A	1.f	1a
1BB-	[1B-	.	[1dd
.	.	[2d\	.
=138	=138	=138	=138
1GG	2B-\]	2d\]	2dd\]
.	2c\	1B-	2cc\
1BB-	1d	.	1b-
.	.	2G/	.
=139	=139	=139	=139
0F	0c	2A/	1.a
.	.	2B-\	.
.	.	1c	.
.	.	.	[2f/
=140	=140	=140	=140
1BB-	1B-	1d	2f/]
.	.	.	4e/
.	.	.	4d/
1C	[1G	1c	1e
=141	=141	=141	=141
1GG	1G]	2B-\	1d
.	.	2G/	.
1D	1F	1A	2r
.	.	.	2f/
=142	=142	=142	=142
1G	1B-	1G	2g/
.	.	.	4a/
.	.	.	4b-\
1F	1c	1r	2a/
.	.	.	4b-\
.	.	.	4cc\
=143	=143	=143	=143
1D	1d	1d	2b-\
.	.	.	2a/
1E-	1G	1c	[1g
=144	=144	=144	=144
0D	0A	0d	2g/]
.	.	.	4f#i/
.	.	.	4e/
.	.	.	1f#i
=145	=145	=145	=145
*M3/1	*M3/1	*M3/1	*M3/1
*met(3)	*met(3)	*met(3)	*met(3)
[0.GG	0G	0B-	0g
.	[1d	1G	[1b-
=146	=146	=146	=146
1GG]	1d]	1B-	1b-]
1r	1c	1F	1a
1GG	[1B-	1G	1g
=147	=147	=147	=147
1BB-	1B-]	1F	1dd
1F	1A	1A	1cc
1G	1G	1B-	[1b-
=148	=148	=148	=148
0E-	1B-	1.G	2b-\]
.	.	.	2a/
.	1c	.	1g
.	.	2A/	.
1D	1d	2B-\	1f
.	.	2c\	.
=149	=149	=149	=149
1G	1B-	2d\	1.b-
.	.	2e\	.
0F	0c	1.f	.
.	.	.	2a/
.	.	.	2a/
.	.	2f\	2g/
=150	=150	=150	=150
1BB-	0B-	0d	0.b-
1.GG	.	.	.
.	1r	1c	.
2AA/	.	.	.
=151	=151	=151	=151
0BB-	0d	1.B-	0.r
.	.	2A/	.
1C	1c	1G	.
=152	=152	=152	=152
1D	1.B-	1F	0.r
1GG	.	1G	.
.	2A/	.	.
[1BB-	1G	1D	.
=153	=153	=153	=153
2BB-/]	1F	0.r	0.r
2AA/	.	.	.
2BB-/	1G	.	.
2C/	.	.	.
1D	1D	.	.
=154	=154	=154	=154
1BB-	0G	0.r	0.r
0AA	.	.	.
.	1F#i	.	.
=155	=155	=155	=155
0GG	0G	[0.d	1.b-
.	.	.	4a/
.	.	.	4g/
1D	1A	.	1f
=156	=156	=156	=156
1GG	1B-	1d]	0g
1C	1c	1e-i	.
1D	1A	1d	1f
=157	=157	=157	=157
1E-	0G	1B-	1g
0C	.	1.c	1.e
.	1A	.	.
.	.	2B-\	2d/
=158	=158	=158	=158
1D	1F	1A	1.d
1r	0E	1G	.
.	.	.	2c#i/
1AA	.	1A	2c#i/
.	.	.	2Bni/
=159	=159	=159	=159
1.BB-	1.D	1F	1d
.	.	1B-	1r
2C/	2E/	.	.
1D	1F	1A	1a
=160	=160	=160	=160
0.GG	0G	1G	1.b-
.	.	0d	.
.	.	.	2cc\
.	1B-	.	1dd
=161	=161	=161	=161
1C	1c	1e	1g
1BB-	1d	1f	1.b-
[1E-	[1G	1B-	.
.	.	.	2a/
=162	=162	=162	=162
1E-]	1G]	1c	1g
0D	0A	0d	1.f#i
.	.	.	2e/
=163	=163	=163	=163
0.GGl	0.Gl	0.dl	0.gl
==	==	==	==
*-	*-	*-	*-
!!!RDF**kern: l=long note in original notation
!!!RDF**kern: i=editorial accidental
!!!RDF**kern: V=start of tuplet marker
!!!RDF**kern: Z=end of tuplet marker
!!!ENC:	Chris Gage 09-11-2014
!!!END:	2014/10/24/
!!!EED:	Jesse Rodin
!!!EEV:	2015/03/07/
!!!ONB:	Translated from MusicXML and edited on 2015/03/07/ by Craig Sapp
!!muse2ps: C^@{COA}^i2I150v85,85,85,150Q16
